src/components/00-materials/images-raw/Animal - Stag.svg

<svg width="96" height="96" viewBox="0 0 96 96" fill="none" xmlns="http://www.w3.org/2000/svg">
<path d="M56.7056 51.814C56.4967 51.6745 56.2512 51.6 56 51.6C55.6632 51.6 55.3401 51.7338 55.102 51.972C54.8638 52.2101 54.73 52.5331 54.73 52.87C54.73 53.1212 54.8045 53.3667 54.944 53.5756C55.0836 53.7844 55.2819 53.9472 55.514 54.0433C55.746 54.1394 56.0014 54.1646 56.2477 54.1156C56.4941 54.0666 56.7204 53.9456 56.898 53.768C57.0756 53.5904 57.1966 53.3641 57.2456 53.1177C57.2946 52.8714 57.2694 52.616 57.1733 52.384C57.0772 52.1519 56.9144 51.9536 56.7056 51.814ZM54.7388 50.9825C55.1121 50.7331 55.551 50.6 56 50.6C56.602 50.6 57.1794 50.8391 57.6051 51.2648C58.0308 51.6906 58.27 52.2679 58.27 52.87C58.27 53.3189 58.1368 53.7578 57.8874 54.1311C57.638 54.5044 57.2835 54.7954 56.8687 54.9672C56.4539 55.139 55.9975 55.1839 55.5571 55.0964C55.1168 55.0088 54.7123 54.7926 54.3948 54.4751C54.0774 54.1576 53.8612 53.7532 53.7736 53.3128C53.686 52.8725 53.731 52.4161 53.9028 52.0013C54.0746 51.5865 54.3655 51.232 54.7388 50.9825Z" stroke="#00008F"/>
<path d="M55.7 66.46C55.9509 66.1183 56.1622 65.7493 56.33 65.36V65.36C56.3446 65.3213 56.3446 65.2787 56.33 65.24C56.33 65.24 48.47 64.39 48.7 59.03C50.7 66.62 68.53 64.2 73.03 63.68C77.53 63.16 77.2 55.93 75.88 55.96C75.17 55.96 64.42 50.31 53.31 46.96C51.261 45.324 49.3172 43.5605 47.49 41.68C46.077 40.1395 45.0244 38.3038 44.4087 36.3061C43.793 34.3084 43.6294 32.1987 43.93 30.13C44.17 28.91 43.52 26.13 42.78 29.79C42.3383 31.9479 42.0774 34.1388 42 36.34C40.6349 34.7774 39.4008 33.1051 38.31 31.34C36.7279 28.8036 35.6073 26.0071 35 23.08C33.65 16.08 34.83 10.18 38.39 6.94C39.31 6.17 40.54 3.63 37.73 5.94C34.4 8.7 32.63 12.19 31.29 16.33C31.29 16.47 31.19 16.62 31.15 16.76C30.7842 17.8099 30.5328 18.8962 30.4 20C29.6408 19.1693 29.0962 18.1656 28.8139 17.0762C28.5315 15.9868 28.5199 14.8449 28.78 13.75C29.78 10.58 27.4 12.88 27.26 15.91C27.12 18.94 27.88 21.16 30.33 25.72C30.7152 26.559 31.0491 27.4206 31.33 28.3C32.1793 30.4641 33.2306 32.5432 34.47 34.51C32.6 34.57 28.41 34.34 26.2 31.51C23.32 27.78 23.57 24.85 22.49 24.62C21.41 24.39 22.96 29.24 24.49 32.34C26.02 35.44 30.49 38.02 36.66 38.43C38.25 39.61 39.73 41.25 40.84 41.97C41.44 42.55 42.08 43.13 42.74 43.72C38.25 42.34 34.65 41.18 33.05 40.59C31.64 46.37 36.37 51.67 45.25 50.29C44.18 53.4 41.01 57.59 38.64 61.68C31.48 72.52 25.09 78.33 19.26 81.58C27.2131 87.6964 36.967 91.0086 47 91C50.7349 90.9982 54.4556 90.5415 58.08 89.64C57.8105 87.9144 57.3717 86.2196 56.77 84.58C54.27 77.74 52.74 72.18 55.7 66.46V66.46Z" stroke="#00008F" stroke-width="2" stroke-linecap="round" stroke-linejoin="round"/>
</svg>

<svg width="96" height="96" viewBox="0 0 96 96" fill="none" xmlns="http://www.w3.org/2000/svg"><path d="M56.706 51.814a1.27 1.27 0 10-1.412 2.113 1.27 1.27 0 001.412-2.113zm-1.967-.831a2.27 2.27 0 112.522 3.775 2.27 2.27 0 01-2.522-3.776z" stroke="#00008F"/><path d="M55.7 66.46c.25-.342.462-.71.63-1.1v0a.17.17 0 000-.12s-7.86-.85-7.63-6.21c2 7.59 19.83 5.17 24.33 4.65 4.5-.52 4.17-7.75 2.85-7.72-.71 0-11.46-5.65-22.57-9a62.415 62.415 0 01-5.82-5.28 14.09 14.09 0 01-3.56-11.55c.24-1.22-.41-4-1.15-.34a39.603 39.603 0 00-.78 6.55 37.817 37.817 0 01-3.69-5A25.33 25.33 0 0135 23.08c-1.35-7-.17-12.9 3.39-16.14.92-.77 2.15-3.31-.66-1-3.33 2.76-5.1 6.25-6.44 10.39 0 .14-.1.29-.14.43A15.46 15.46 0 0030.4 20a6.9 6.9 0 01-1.62-6.25c1-3.17-1.38-.87-1.52 2.16-.14 3.03.62 5.25 3.07 9.81.385.839.72 1.7 1 2.58.85 2.164 1.9 4.243 3.14 6.21-1.87.06-6.06-.17-8.27-3-2.88-3.73-2.63-6.66-3.71-6.89-1.08-.23.47 4.62 2 7.72 1.53 3.1 6 5.68 12.17 6.09 1.59 1.18 3.07 2.82 4.18 3.54.6.58 1.24 1.16 1.9 1.75-4.49-1.38-8.09-2.54-9.69-3.13-1.41 5.78 3.32 11.08 12.2 9.7-1.07 3.11-4.24 7.3-6.61 11.39-7.16 10.84-13.55 16.65-19.38 19.9A45.44 45.44 0 0047 91a45.995 45.995 0 0011.08-1.36 26.602 26.602 0 00-1.31-5.06c-2.5-6.84-4.03-12.4-1.07-18.12v0z" stroke="#00008F" stroke-width="2" stroke-linecap="round" stroke-linejoin="round"/></svg>
